app/dist/common/images/tis.svg

<svg height="18" viewBox="0 0 18 18" width="18" xmlns="http://www.w3.org/2000/svg"><path d="m0 0h18v18h-18z" fill="#f0f3fa"/><path d="m7 3.91-3.64 4.15a1.52 1.52 0 0 0 0 1.96l3.64 4.14v-10.26z" fill="#22a9bc"/><path d="m9.93 3.36a1.48 1.48 0 0 0 -1.93 0v3.64h6zm-1.93 11.24c.52.53 1.36.53 1.87 0l2.13-2.14v-4.46h-4zm5-2.8 1.65-1.85c.47-.53.47-1.43 0-1.95v.05-.05h-1.65z" fill="#4c4948"/></svg>

<!-- by TradingView --><svg xmlns="http://www.w3.org/2000/svg" width="18" height="18" viewBox="0 0 18 18"><path fill="#F0F3FA" d="M0 0h18v18H0z"/><path d="M7 3.91 3.36 8.06a1.52 1.52 0 0 0 0 1.96L7 14.16V3.9Z" fill="#22A9BC"/><path d="M9.93 3.36a1.48 1.48 0 0 0-1.93 0V7h6L9.93 3.36ZM8 14.6c.52.53 1.36.53 1.87 0L12 12.46V8H8v6.6ZM13 11.8l1.65-1.85c.47-.53.47-1.43 0-1.95v.05V8H13v3.8Z" fill="#4C4948"/></svg>
